X: 10
T: No_108_Hinata_Dance_Song_(d).krn
N: Derived from No_108_Hinata_Dance_Song_(d).krn
%%abc-version 2.0
%%abcx-abcm2ps-target-version 5.9.1 (29 Sep 2008)
%%abc-creator hum2abc beta
%%abcx-conversion-date 2019/03/15 08:38:45
%%humdrum-veritas 538138184
%%humdrum-veritas-data 471828857
%%linebreak <none>
%%barnumbers 0
L: 1/8
M: 2/4
K: E clef=bass
[K:clef=bass][M:2/4]z3/ E,/ E,3/B,/ ]|:  
(B,3A, | 
G,)G,/G,/ B,3/A,/ | 
(3G,A,G, (A,3/G,/) | 
E,/E,/E, E,3/G,/ ||  
[M:5/8]E,/E,/E,A,/G,/(A,G,) ||  
[M:2/4](3E,E,E,E,2 | 
(3B,,E,E,E,2 | 
(3z E,E, E,3/G,/ ||  
[M:5/8]E,/E,/E,A,/G,/(A,G,) ||  
[M:3/4](3E,E,E, E,3/E,/ B,, z ||  
[M:2/4]E,3E,/E,/ | 
E,3/E,/ E,3/B,/ :|]  



% FRACTION = 0.499634BUT SHOULD BE 0
